static/images/icons/gradients/star.svg

<svg width="40" height="40" viewBox="0 0 40 40" fill="none" xmlns="http://www.w3.org/2000/svg">
<path d="M20.4526 2.28753C20.3702 2.11205 20.1939 2 20 2C19.8061 2 19.6298 2.11205 19.5474 2.28753L18.3088 4.92615L15.549 5.35031C15.3639 5.37877 15.2101 5.50837 15.1508 5.68607C15.0914 5.86378 15.1364 6.05976 15.2672 6.19381L17.2784 8.25358L16.8028 11.1695C16.7719 11.3585 16.8518 11.5485 17.0083 11.6588C17.1649 11.769 17.3706 11.7802 17.5382 11.6876L20 10.3262L22.4618 11.6876C22.6294 11.7802 22.8351 11.769 22.9917 11.6588C23.1482 11.5485 23.2281 11.3585 23.1972 11.1695L22.7216 8.25358L24.7328 6.19381C24.8636 6.05976 24.9086 5.86378 24.8492 5.68607C24.7899 5.50837 24.6361 5.37877 24.451 5.35031L21.6912 4.92615L20.4526 2.28753Z" fill="url(#paint0_linear_1881_6159)" stroke="#FD366E" stroke-linecap="round" stroke-linejoin="round"/>
<path d="M20.4526 28.5375C20.3702 28.3621 20.1939 28.25 20 28.25C19.8061 28.25 19.6298 28.3621 19.5474 28.5375L18.3088 31.1762L15.549 31.6003C15.3639 31.6288 15.2101 31.7584 15.1508 31.9361C15.0914 32.1138 15.1364 32.3098 15.2672 32.4438L17.2784 34.5036L16.8028 37.4195C16.7719 37.6085 16.8518 37.7985 17.0083 37.9088C17.1649 38.019 17.3706 38.0302 17.5382 37.9376L20 36.5762L22.4618 37.9376C22.6294 38.0302 22.8351 38.019 22.9917 37.9088C23.1482 37.7985 23.2281 37.6085 23.1972 37.4195L22.7216 34.5036L24.7328 32.4438C24.8636 32.3098 24.9086 32.1138 24.8492 31.9361C24.7899 31.7584 24.6361 31.6288 24.451 31.6003L21.6912 31.1762L20.4526 28.5375Z" fill="url(#paint1_linear_1881_6159)" stroke="#FD366E" stroke-linecap="round" stroke-linejoin="round"/>
<path d="M32.3276 8.53753C32.2452 8.36205 32.0689 8.25 31.875 8.25C31.6811 8.25 31.5048 8.36205 31.4224 8.53753L30.1838 11.1762L27.424 11.6003C27.2389 11.6288 27.0851 11.7584 27.0258 11.9361C26.9664 12.1138 27.0114 12.3098 27.1422 12.4438L29.1534 14.5036L28.6778 17.4195C28.6469 17.6085 28.7268 17.7985 28.8833 17.9088C29.0399 18.019 29.2456 18.0302 29.4132 17.9376L31.875 16.5762L34.3368 17.9376C34.5044 18.0302 34.7101 18.019 34.8667 17.9088C35.0232 17.7985 35.1031 17.6085 35.0722 17.4195L34.5966 14.5036L36.6078 12.4438C36.7386 12.3098 36.7836 12.1138 36.7242 11.9361C36.6649 11.7584 36.5111 11.6288 36.326 11.6003L33.5662 11.1762L32.3276 8.53753Z" fill="url(#paint2_linear_1881_6159)" stroke="#FD366E" stroke-linecap="round" stroke-linejoin="round"/>
<path d="M32.3276 23.5375C32.2452 23.3621 32.0689 23.25 31.875 23.25C31.6811 23.25 31.5048 23.3621 31.4224 23.5375L30.1838 26.1762L27.424 26.6003C27.2389 26.6288 27.0851 26.7584 27.0258 26.9361C26.9664 27.1138 27.0114 27.3098 27.1422 27.4438L29.1534 29.5036L28.6778 32.4195C28.6469 32.6085 28.7268 32.7985 28.8833 32.9088C29.0399 33.019 29.2456 33.0302 29.4132 32.9376L31.875 31.5762L34.3368 32.9376C34.5044 33.0302 34.7101 33.019 34.8667 32.9088C35.0232 32.7985 35.1031 32.6085 35.0722 32.4195L34.5966 29.5036L36.6078 27.4438C36.7386 27.3098 36.7836 27.1138 36.7242 26.9361C36.6649 26.7584 36.5111 26.6288 36.326 26.6003L33.5662 26.1762L32.3276 23.5375Z" fill="url(#paint3_linear_1881_6159)" stroke="#FD366E" stroke-linecap="round" stroke-linejoin="round"/>
<path d="M8.57761 8.53753C8.49524 8.36205 8.31885 8.25 8.125 8.25C7.93115 8.25 7.75476 8.36205 7.67239 8.53753L6.43376 11.1762L3.67404 11.6003C3.48886 11.6288 3.33513 11.7584 3.27576 11.9361C3.2164 12.1138 3.26136 12.3098 3.39225 12.4438L5.40338 14.5036L4.92777 17.4195C4.89695 17.6085 4.97676 17.7985 5.13331 17.9088C5.28986 18.019 5.49564 18.0302 5.66321 17.9376L8.125 16.5762L10.5868 17.9376C10.7544 18.0302 10.9601 18.019 11.1167 17.9088C11.2732 17.7985 11.3531 17.6085 11.3222 17.4195L10.8466 14.5036L12.8578 12.4438C12.9886 12.3098 13.0336 12.1138 12.9742 11.9361C12.9149 11.7584 12.7611 11.6288 12.576 11.6003L9.81624 11.1762L8.57761 8.53753Z" fill="url(#paint4_linear_1881_6159)" stroke="#FD366E" stroke-linecap="round" stroke-linejoin="round"/>
<path d="M8.57761 22.2875C8.49524 22.1121 8.31885 22 8.125 22C7.93115 22 7.75476 22.1121 7.67239 22.2875L6.43376 24.9262L3.67404 25.3503C3.48886 25.3788 3.33513 25.5084 3.27576 25.6861C3.2164 25.8638 3.26136 26.0598 3.39225 26.1938L5.40338 28.2536L4.92777 31.1695C4.89695 31.3585 4.97676 31.5485 5.13331 31.6588C5.28986 31.769 5.49564 31.7802 5.66321 31.6876L8.125 30.3262L10.5868 31.6876C10.7544 31.7802 10.9601 31.769 11.1167 31.6588C11.2732 31.5485 11.3531 31.3585 11.3222 31.1695L10.8466 28.2536L12.8578 26.1938C12.9886 26.0598 13.0336 25.8638 12.9742 25.6861C12.9149 25.5084 12.7611 25.3788 12.576 25.3503L9.81624 24.9262L8.57761 22.2875Z" fill="url(#paint5_linear_1881_6159)" stroke="#FD366E" stroke-linecap="round" stroke-linejoin="round"/>
<defs>
<linearGradient id="paint0_linear_1881_6159" x1="20.0005" y1="2.61023" x2="20.0005" y2="11.1415" gradientUnits="userSpaceOnUse">
<stop stop-color="#FD366E" stop-opacity="0"/>
<stop offset="1" stop-color="#FD366E" stop-opacity="0.32"/>
</linearGradient>
<linearGradient id="paint1_linear_1881_6159" x1="20.0005" y1="28.8602" x2="20.0005" y2="37.3915" gradientUnits="userSpaceOnUse">
<stop stop-color="#FD366E" stop-opacity="0"/>
<stop offset="1" stop-color="#FD366E" stop-opacity="0.32"/>
</linearGradient>
<linearGradient id="paint2_linear_1881_6159" x1="31.8755" y1="8.86023" x2="31.8755" y2="17.3915" gradientUnits="userSpaceOnUse">
<stop stop-color="#FD366E" stop-opacity="0"/>
<stop offset="1" stop-color="#FD366E" stop-opacity="0.32"/>
</linearGradient>
<linearGradient id="paint3_linear_1881_6159" x1="31.8755" y1="23.8602" x2="31.8755" y2="32.3915" gradientUnits="userSpaceOnUse">
<stop stop-color="#FD366E" stop-opacity="0"/>
<stop offset="1" stop-color="#FD366E" stop-opacity="0.32"/>
</linearGradient>
<linearGradient id="paint4_linear_1881_6159" x1="8.12553" y1="8.86023" x2="8.12553" y2="17.3915" gradientUnits="userSpaceOnUse">
<stop stop-color="#FD366E" stop-opacity="0"/>
<stop offset="1" stop-color="#FD366E" stop-opacity="0.32"/>
</linearGradient>
<linearGradient id="paint5_linear_1881_6159" x1="8.12553" y1="22.6102" x2="8.12553" y2="31.1415" gradientUnits="userSpaceOnUse">
<stop stop-color="#FD366E" stop-opacity="0"/>
<stop offset="1" stop-color="#FD366E" stop-opacity="0.32"/>
</linearGradient>
</defs>
</svg>

<svg xmlns="http://www.w3.org/2000/svg" width="40" height="40" fill="none"><path fill="url(#a)" stroke="#FD366E" stroke-linecap="round" stroke-linejoin="round" d="M20.453 2.288a.5.5 0 0 0-.906 0L18.31 4.926l-2.76.424a.5.5 0 0 0-.282.844l2.011 2.06-.475 2.915a.5.5 0 0 0 .735.519L20 10.326l2.462 1.362a.5.5 0 0 0 .735-.519l-.475-2.915 2.01-2.06a.5.5 0 0 0-.281-.844l-2.76-.424-1.238-2.638Z"/><path fill="url(#b)" stroke="#FD366E" stroke-linecap="round" stroke-linejoin="round" d="M20.453 28.538a.5.5 0 0 0-.906 0l-1.238 2.638-2.76.424a.5.5 0 0 0-.282.844l2.011 2.06-.475 2.916a.5.5 0 0 0 .735.518L20 36.576l2.462 1.362a.5.5 0 0 0 .735-.519l-.475-2.915 2.01-2.06a.5.5 0 0 0-.281-.844l-2.76-.424-1.238-2.638Z"/><path fill="url(#c)" stroke="#FD366E" stroke-linecap="round" stroke-linejoin="round" d="M32.328 8.538a.5.5 0 0 0-.906 0l-1.238 2.638-2.76.424a.5.5 0 0 0-.282.844l2.011 2.06-.475 2.915a.5.5 0 0 0 .735.519l2.462-1.362 2.462 1.362a.5.5 0 0 0 .735-.518l-.475-2.916 2.01-2.06a.5.5 0 0 0-.281-.844l-2.76-.424-1.238-2.638Z"/><path fill="url(#d)" stroke="#FD366E" stroke-linecap="round" stroke-linejoin="round" d="M32.328 23.538a.5.5 0 0 0-.906 0l-1.238 2.638-2.76.424a.5.5 0 0 0-.282.844l2.011 2.06-.475 2.915a.5.5 0 0 0 .735.519l2.462-1.362 2.462 1.362a.5.5 0 0 0 .735-.519l-.475-2.915 2.01-2.06a.5.5 0 0 0-.281-.844l-2.76-.424-1.238-2.638Z"/><path fill="url(#e)" stroke="#FD366E" stroke-linecap="round" stroke-linejoin="round" d="M8.578 8.538a.5.5 0 0 0-.906 0l-1.238 2.638-2.76.424a.5.5 0 0 0-.282.844l2.011 2.06-.475 2.915a.5.5 0 0 0 .735.519l2.462-1.362 2.462 1.362a.5.5 0 0 0 .735-.518l-.475-2.916 2.01-2.06a.5.5 0 0 0-.281-.844l-2.76-.424-1.238-2.638Z"/><path fill="url(#f)" stroke="#FD366E" stroke-linecap="round" stroke-linejoin="round" d="M8.578 22.288a.5.5 0 0 0-.906 0l-1.238 2.638-2.76.424a.5.5 0 0 0-.282.844l2.011 2.06-.475 2.915a.5.5 0 0 0 .735.519l2.462-1.362 2.462 1.362a.5.5 0 0 0 .735-.518l-.475-2.916 2.01-2.06a.5.5 0 0 0-.281-.844l-2.76-.424-1.238-2.638Z"/><defs><linearGradient id="a" x1="20" x2="20" y1="2.61" y2="11.142" gradientUnits="userSpaceOnUse"><stop stop-color="#FD366E" stop-opacity="0"/><stop offset="1" stop-color="#FD366E" stop-opacity=".32"/></linearGradient><linearGradient id="b" x1="20" x2="20" y1="28.86" y2="37.392" gradientUnits="userSpaceOnUse"><stop stop-color="#FD366E" stop-opacity="0"/><stop offset="1" stop-color="#FD366E" stop-opacity=".32"/></linearGradient><linearGradient id="c" x1="31.875" x2="31.875" y1="8.86" y2="17.392" gradientUnits="userSpaceOnUse"><stop stop-color="#FD366E" stop-opacity="0"/><stop offset="1" stop-color="#FD366E" stop-opacity=".32"/></linearGradient><linearGradient id="d" x1="31.875" x2="31.875" y1="23.86" y2="32.392" gradientUnits="userSpaceOnUse"><stop stop-color="#FD366E" stop-opacity="0"/><stop offset="1" stop-color="#FD366E" stop-opacity=".32"/></linearGradient><linearGradient id="e" x1="8.126" x2="8.126" y1="8.86" y2="17.392" gradientUnits="userSpaceOnUse"><stop stop-color="#FD366E" stop-opacity="0"/><stop offset="1" stop-color="#FD366E" stop-opacity=".32"/></linearGradient><linearGradient id="f" x1="8.126" x2="8.126" y1="22.61" y2="31.142" gradientUnits="userSpaceOnUse"><stop stop-color="#FD366E" stop-opacity="0"/><stop offset="1" stop-color="#FD366E" stop-opacity=".32"/></linearGradient></defs></svg>
